app/assets/img/ic-verify-gray.svg

<svg fill="none" height="32" viewBox="0 0 34 32" width="34" xmlns="http://www.w3.org/2000/svg"><g fill="#000" fill-opacity=".38"><path d="m15.4033 31.6667c-8.26997 0-14.99998-6.7283-14.99998-15 0-8.27168 6.73001-15.00002 14.99998-15.00002v3.33334c-6.43331 0-11.66664 5.23338-11.66664 11.66668s5.23333 11.6667 11.66664 11.6667c6.4334 0 11.6667-5.2334 11.6667-11.6667h3.3333c0 8.2717-6.73 15-15 15z"/><path d="m17.2233 23.1-8.29331-8.2933 2.94501-2.9467 5.04 5.04 13.5417-16.55332 3.225 2.64z"/></g></svg>

<svg width="34" height="32" viewBox="0 0 34 32" fill="none" xmlns="http://www.w3.org/2000/svg">
<path d="M15.4033 31.6667C7.13333 31.6667 0.40332 24.9384 0.40332 16.6667C0.40332 8.39502 7.13333 1.66668 15.4033 1.66668V5.00002C8.96999 5.00002 3.73666 10.2334 3.73666 16.6667C3.73666 23.1 8.96999 28.3334 15.4033 28.3334C21.8367 28.3334 27.07 23.1 27.07 16.6667H30.4033C30.4033 24.9384 23.6733 31.6667 15.4033 31.6667Z" fill="black" fill-opacity="0.38"/>
<path d="M17.2233 23.1L8.92999 14.8067L11.875 11.86L16.915 16.9L30.4567 0.34668L33.6817 2.98668L17.2233 23.1Z" fill="black" fill-opacity="0.38"/>
</svg>
